src/icons/group-placeholder.svg

<svg width="126" height="126" viewBox="0 0 126 126" fill="none" xmlns="http://www.w3.org/2000/svg">
<circle cx="63" cy="63" r="61.5" fill="#0A0A0A" stroke="#060606" stroke-width="3"/>
<path d="M80.6206 73.7253C84.7858 75.8177 88.3568 79.1756 90.9634 83.3743C91.4795 84.2059 91.7375 84.6216 91.8268 85.1972C92.0082 86.3673 91.2083 87.8055 90.1186 88.2687C89.5824 88.4964 88.9791 88.4964 87.7729 88.4964M74.8988 61.4099C79.1378 59.3034 82.0511 54.9289 82.0511 49.8741C82.0511 44.8193 79.1378 40.4449 74.8988 38.3382M69.177 49.8741C69.177 56.9843 63.4128 62.7482 56.3027 62.7482C49.1926 62.7482 43.4286 56.9843 43.4286 49.8741C43.4286 42.7639 49.1926 37 56.3027 37C63.4128 37 69.177 42.7639 69.177 49.8741ZM36.4458 82.5981C41.007 75.7499 48.2045 71.331 56.3027 71.331C64.4009 71.331 71.5984 75.7499 76.1596 82.5981C77.1589 84.0986 77.6584 84.8488 77.6009 85.8069C77.5563 86.553 77.0671 87.4665 76.4709 87.9174C75.7053 88.4964 74.6522 88.4964 72.546 88.4964H40.0595C37.9533 88.4964 36.9002 88.4964 36.1345 87.9174C35.5384 87.4665 35.0493 86.553 35.0045 85.8069C34.947 84.8488 35.4466 84.0986 36.4458 82.5981Z" stroke="#59FCB3" stroke-width="6" stroke-linecap="round" stroke-linejoin="round"/>
</svg>

<svg xmlns="http://www.w3.org/2000/svg" width="126" height="126" fill="none" xmlns:v="https://vecta.io/nano"><circle cx="63" cy="63" r="61.5" fill="#0a0a0a" stroke="#060606" stroke-width="3"/><path d="M80.621 73.725c4.165 2.092 7.736 5.45 10.343 9.649.516.832.774 1.247.863 1.823.181 1.17-.619 2.608-1.708 3.072-.536.228-1.139.228-2.346.228M74.899 61.41c4.239-2.106 7.152-6.481 7.152-11.536s-2.913-9.429-7.152-11.536m-5.722 11.536c0 7.11-5.764 12.874-12.874 12.874s-12.874-5.764-12.874-12.874S49.193 37 56.303 37s12.874 5.764 12.874 12.874zM36.446 82.598c4.561-6.848 11.759-11.267 19.857-11.267S71.598 75.75 76.16 82.598c.999 1.501 1.499 2.251 1.441 3.209-.045.746-.534 1.66-1.13 2.111-.766.579-1.819.579-3.925.579H40.06c-2.106 0-3.159 0-3.925-.579-.596-.451-1.085-1.364-1.13-2.111-.057-.958.442-1.708 1.441-3.209z" stroke="#59fcb3" stroke-width="6" stroke-linecap="round" stroke-linejoin="round"/></svg>
